; HEADER_BLOCK_START
; generated by OrcaSlicer 2.3.2 on 2026-04-29 at 14:28:10
; total layer number: 240
; filament_density: 1.24
; filament_diameter: 1.75
; max_z_height: 48.00
; filament: 1
; HEADER_BLOCK_END

; THUMBNAIL_BLOCK_START

;
; THUMBNAIL_BLOCK_END

; THUMBNAIL_BLOCK_START

;
; THUMBNAIL_BLOCK_END

; external perimeters extrusion width = 0.35mm
; perimeters extrusion width = 0.45mm
; infill extrusion width = 0.40mm
; solid infill extrusion width = 0.45mm
; top infill extrusion width = 0.35mm
; first layer extrusion width = 0.42mm

; EXECUTABLE_BLOCK_START
EXCLUDE_OBJECT_DEFINE NAME=3dbenchy.stl_id_0_copy_0 CENTER=200,200 POLYGON=[[170,190.816],[170.002,190.755],[170.007,190.699],[170.012,190.646],[170.014,190.63],[170.02,190.583],[170.028,190.525],[170.046,190.436],[170.058,190.379],[170.074,190.322],[170.081,190.296],[170.097,190.239],[170.126,190.155],[170.141,190.118],[170.162,190.064],[170.169,190.047],[170.186,190.01],[170.209,189.958],[170.231,189.916],[170.264,189.854],[170.278,189.827],[170.291,189.806],[170.34,189.727],[170.357,189.7],[170.371,189.679],[170.405,189.631],[170.44,189.584],[170.484,189.531],[170.508,189.501],[170.539,189.466],[170.578,189.423],[170.592,189.408],[170.6,189.4],[170.641,189.359],[170.661,189.34],[170.704,189.3],[170.737,189.271],[170.783,189.234],[170.793,189.225],[170.828,189.197],[170.887,189.154],[170.935,189.121],[170.979,189.092],[171.044,189.052],[171.071,189.036],[171.124,189.008],[171.148,188.995],[171.175,188.981],[171.197,188.97],[171.253,188.944],[171.312,188.919],[171.361,188.899],[171.417,188.879],[171.429,188.875],[171.472,188.861],[171.485,188.857],[171.541,188.84],[171.548,188.838],[171.584,188.828],[171.597,188.825],[171.625,188.818],[171.641,188.814],[171.71,188.799],[171.739,188.794],[171.769,188.789],[171.798,188.784],[199.812,184.886],[200.055,184.853],[200.299,184.821],[200.543,184.791],[200.882,184.752],[201.105,184.728],[201.35,184.702],[201.596,184.678],[201.842,184.656],[202.087,184.635],[202.253,184.622],[202.333,184.616],[202.523,184.602],[202.579,184.598],[202.826,184.581],[202.987,184.571],[203.071,184.566],[203.232,184.557],[203.489,184.544],[203.597,184.539],[203.619,184.538],[203.755,184.532],[203.906,184.526],[204.05,184.521],[204.167,184.517],[204.233,184.515],[204.342,184.512],[204.46,184.509],[204.548,184.507],[204.689,184.504],[204.881,184.501],[205.062,184.499],[205.18,184.498],[205.578,184.498],[205.934,184.5],[206.369,184.508],[206.45,184.51],[206.805,184.52],[206.912,184.524],[207.24,184.537],[207.677,184.558],[208.009,184.578],[208.092,184.583],[208.202,184.59],[208.375,184.602],[208.495,184.611],[208.641,184.622],[208.728,184.629],[208.909,184.644],[209.04,184.655],[209.832,184.78],[209.841,184.782],[210.269,184.888],[210.377,184.915],[210.595,184.97],[210.737,185.007],[210.813,185.027],[210.967,185.068],[211.248,185.145],[211.424,185.195],[211.68,185.27],[211.896,185.334],[212.111,185.4],[212.332,185.47],[212.558,185.543],[212.752,185.607],[213.008,185.694],[213.178,185.753],[213.232,185.772],[213.4,185.832],[213.601,185.905],[213.822,185.987],[214.033,186.067],[214.233,186.145],[214.343,186.188],[214.443,186.228],[214.453,186.232],[214.662,186.316],[214.871,186.402],[214.927,186.425],[215.134,186.513],[215.341,186.603],[215.547,186.693],[215.957,186.879],[216.16,186.974],[216.363,187.07],[216.565,187.168],[216.766,187.267],[216.967,187.367],[217.166,187.469],[217.366,187.572],[217.563,187.677],[217.762,187.783],[217.957,187.89],[218.153,187.999],[218.348,188.11],[218.543,188.221],[218.737,188.334],[218.93,188.449],[219.123,188.565],[219.314,188.683],[219.505,188.801],[219.696,188.922],[219.885,189.043],[220.075,189.167],[220.262,189.291],[220.45,189.417],[220.637,189.544],[220.824,189.673],[221.008,189.803],[221.193,189.934],[221.376,190.067],[221.56,190.201],[221.742,190.337],[221.923,190.474],[222.104,190.612],[222.284,190.752],[222.463,190.893],[222.642,191.036],[222.82,191.18],[222.998,191.325],[223.173,191.472],[223.523,191.77],[223.697,191.921],[223.87,192.074],[224.042,192.228],[224.214,192.384],[224.328,192.489],[224.498,192.645],[224.665,192.803],[224.832,192.962],[224.996,193.122],[225.161,193.283],[225.325,193.445],[225.486,193.609],[225.647,193.773],[225.807,193.939],[225.966,194.106],[226.124,194.274],[226.282,194.443],[226.438,194.614],[226.592,194.785],[226.745,194.958],[226.898,195.132],[227.05,195.306],[227.2,195.483],[227.349,195.66],[227.498,195.838],[227.645,196.017],[227.791,196.198],[227.936,196.38],[228.081,196.563],[228.223,196.747],[228.364,196.932],[228.505,197.118],[228.645,197.305],[228.784,197.493],[228.921,197.683],[229.056,197.874],[229.192,198.065],[229.325,198.258],[229.458,198.452],[229.589,198.647],[229.618,198.692],[229.651,198.745],[229.682,198.798],[229.713,198.852],[229.742,198.907],[229.769,198.962],[229.819,199.076],[229.834,199.117],[229.856,199.175],[229.876,199.233],[229.895,199.292],[229.912,199.351],[229.929,199.413],[229.943,199.47],[229.954,199.53],[229.966,199.593],[229.975,199.652],[229.984,199.713],[229.991,199.774],[229.995,199.836],[229.998,199.905],[230,199.966],[230,200.027],[229.999,200.088],[229.996,200.149],[229.992,200.209],[229.986,200.27],[229.977,200.331],[229.968,200.391],[229.958,200.449],[229.945,200.512],[229.932,200.569],[229.916,200.632],[229.901,200.686],[229.883,200.745],[229.863,200.803],[229.842,200.861],[229.82,200.918],[229.797,200.974],[229.771,201.03],[229.744,201.086],[229.716,201.14],[229.686,201.194],[229.655,201.248],[229.623,201.301],[229.589,201.353],[229.472,201.527],[229.339,201.721],[229.206,201.914],[229.071,202.106],[228.936,202.297],[228.797,202.487],[228.659,202.676],[228.52,202.864],[228.38,203.05],[228.237,203.236],[228.095,203.42],[227.95,203.604],[227.659,203.968],[227.51,204.148],[227.361,204.328],[227.21,204.506],[227.06,204.683],[226.907,204.86],[226.752,205.035],[226.597,205.209],[226.482,205.337],[226.325,205.509],[226.167,205.68],[226.008,205.85],[225.848,206.018],[225.688,206.186],[225.526,206.352],[225.2,206.68],[225.034,206.841],[224.869,207.002],[224.703,207.161],[224.535,207.319],[224.367,207.475],[224.199,207.63],[224.028,207.784],[223.857,207.937],[223.686,208.089],[223.512,208.239],[223.338,208.388],[223.164,208.536],[222.987,208.682],[222.811,208.827],[222.632,208.971],[222.454,209.114],[222.275,209.256],[222.093,209.396],[221.911,209.535],[221.728,209.673],[221.544,209.81],[221.359,209.945],[221.173,210.08],[220.799,210.344],[220.611,210.474],[220.421,210.603],[220.23,210.731],[220.039,210.857],[219.846,210.982],[219.653,211.106],[219.458,211.228],[219.263,211.349],[219.067,211.469],[218.869,211.587],[218.672,211.704],[218.472,211.819],[218.272,211.934],[218.072,212.046],[217.87,212.158],[217.595,212.307],[217.395,212.412],[217.196,212.516],[216.996,212.618],[216.796,212.719],[216.595,212.818],[216.392,212.916],[216.19,213.012],[215.987,213.107],[215.783,213.2],[215.579,213.292],[215.374,213.383],[215.169,213.472],[214.963,213.559],[214.756,213.645],[214.666,213.682],[214.549,213.73],[214.341,213.813],[214.122,213.898],[214.003,213.944],[213.704,214.057],[213.493,214.134],[213.293,214.206],[213.071,214.284],[212.884,214.348],[212.869,214.353],[212.656,214.424],[212.443,214.494],[212.206,214.57],[212.005,214.632],[211.979,214.64],[211.751,214.709],[211.523,214.776],[211.295,214.841],[211.142,214.884],[211.065,214.905],[210.924,214.943],[210.706,215.001],[210.606,215.027],[210.488,215.057],[210.269,215.112],[209.843,215.218],[209.316,215.319],[209.306,215.32],[209.05,215.344],[209.003,215.348],[208.81,215.364],[208.725,215.371],[208.561,215.384],[208.481,215.39],[208.134,215.414],[207.688,215.441],[207.649,215.443],[207.264,215.462],[207.126,215.468],[206.778,215.481],[206.564,215.487],[206.343,215.493],[205.907,215.5],[205.522,215.502],[205.177,215.502],[204.877,215.499],[204.821,215.498],[204.599,215.494],[204.456,215.491],[204.338,215.488],[204.166,215.483],[204.076,215.48],[203.93,215.475],[203.752,215.468],[203.728,215.467],[203.57,215.46],[203.462,215.455],[203.332,215.448],[203.133,215.437],[202.889,215.423],[202.644,215.407],[202.629,215.406],[202.342,215.385],[202.096,215.366],[201.849,215.345],[201.667,215.328],[201.603,215.322],[201.423,215.305],[201.179,215.28],[201.111,215.273],[200.935,215.254],[200.619,215.218],[200.373,215.188],[200.204,215.166],[199.882,215.124],[171.827,211.22],[171.792,211.215],[171.743,211.207],[171.686,211.196],[171.653,211.189],[171.597,211.175],[171.584,211.172],[171.548,211.162],[171.536,211.159],[171.481,211.142],[171.429,211.125],[171.417,211.121],[171.361,211.101],[171.312,211.081],[171.253,211.056],[171.197,211.03],[171.155,211.009],[171.105,210.982],[171.086,210.972],[171.044,210.948],[170.993,210.917],[170.979,210.908],[170.944,210.885],[170.935,210.879],[170.887,210.846],[170.847,210.817],[170.84,210.811],[170.793,210.775],[170.756,210.744],[170.749,210.738],[170.704,210.7],[170.661,210.66],[170.641,210.64],[170.592,210.592],[170.557,210.555],[170.539,210.534],[170.519,210.511],[170.481,210.466],[170.445,210.42],[170.431,210.402],[170.41,210.374],[170.407,210.37],[170.373,210.322],[170.357,210.3],[170.342,210.278],[170.308,210.224],[170.278,210.173],[170.25,210.122],[170.231,210.084],[170.218,210.06],[170.195,210.012],[170.169,209.954],[170.148,209.903],[170.127,209.849],[170.109,209.793],[170.107,209.79],[170.09,209.738],[170.075,209.682],[170.06,209.625],[170.046,209.564],[170.035,209.507],[170.026,209.454],[170.025,209.448],[170.016,209.396],[170.012,209.353],[170.008,209.325],[170.002,209.245],[170,209.208],[170,209.179],[170,190.816]]
M73 P0 R60
M106 S0
M106 P2 S0
;TYPE:Custom
SET_PRINT_STATS_INFO TOTAL_LAYER=240
START_PRINT BED_TEMP=55 EXTRUDER_TEMP=220 HOUR=14
G90
G21
M83 ; use relative distances for extrusion
; Filament gcode
M106 S0
M106 P2 S0
;LAYER_CHANGE
;Z:0.2
;HEIGHT:0.2
;BEFORE_LAYER_CHANGE
G92 E0.0
;0.2


G10 ; retract
SET_PRINT_STATS_INFO CURRENT_LAYER=1
;_SET_FAN_SPEED_CHANGING_LAYER
SET_VELOCITY_LIMIT ACCEL=800 ACCEL_TO_DECEL=400
; printing object 3dbenchy.stl id:0 copy 0
EXCLUDE_OBJECT_START NAME=3dbenchy.stl_id_0_copy_0
G1 Z.6 F15000
G1 X170.991 Y212.597
G1 Z.2
G11 ; unretract
;TYPE:Brim
;WIDTH:0.42
G1 F3600
G1 X170.477 Y212.246 E.01912
G1 X169.876 Y211.764 E.02368
G1 X169.399 Y211.315 E.02012
G1 X168.947 Y210.822 E.02056
G1 X168.632 Y210.429 E.01548
G1 X168.217 Y209.832 E.02234
G1 X167.876 Y209.254 E.02061
G1 X167.605 Y208.707 E.01877
G1 X167.356 Y208.102 E.02008
G1 X167.17 Y207.547 E.018
G1 X167.004 Y206.915 E.02009
G1 X166.884 Y206.278 E.01992
G1 X166.81 Y205.66 E.01912
G1 X166.775 Y204.875 E.02413
G1 X166.782 Y194.797 E.30969
G1 X166.825 Y194.19 E.01868
G1 X166.888 Y193.698 E.01524
G1 X167.004 Y193.085 E.01919
G1 X167.135 Y192.571 E.01629
G1 X167.314 Y192.012 E.01805
G1 X167.605 Y191.293 E.02382
G1 X167.907 Y190.691 E.02071
G1 X168.178 Y190.228 E.01646
G1 X168.589 Y189.628 E.02236
G1 X168.974 Y189.147 E.01893
G1 X169.36 Y188.726 E.01755
G1 X169.887 Y188.227 E.02229
G1 X170.46 Y187.767 E.02259
G1 X170.969 Y187.418 E.01896
G1 X171.504 Y187.102 E.01908
G1 X172.081 Y186.815 E.01983
G1 X172.546 Y186.618 E.0155
G1 X172.995 Y186.459 E.01465
G1 X173.805 Y186.231 E.02584
G1 X174.465 Y186.103 E.02066
G1 X174.953 Y186.041 E.01512
G1 X198.717 Y184.588 E.73155
G1 X199.655 Y184.552 E.02886
G1 X200.322 Y184.55 E.02049
G1 X201.798 Y184.617 E.0454
G1 X203.035 Y184.749 E.03823
G1 X204.506 Y184.999 E.04584
G1 X205.899 Y185.331 E.04399
G1 X207.353 Y185.781 E.04678
G1 X208.664 Y186.283 E.04313
G1 X209.307 Y186.564 E.02158
G1 X209.989 Y186.892 E.02323
G1 X210.818 Y187.327 E.02879
G1 X211.365 Y187.641 E.01936
G1 X212.643 Y188.456 E.04659
G1 X213.781 Y189.291 E.04336
G1 X214.848 Y190.184 E.04275
G1 X215.9 Y191.186 E.04465
G1 X216.431 Y191.745 E.02369
G1 X216.953 Y192.334 E.02418
G1 X217.865 Y193.474 E.04485
G1 X218.668 Y194.621 E.04302
G1 X219.132 Y195.364 E.02692
G1 X219.458 Y195.938 E.02029
G1 X219.811 Y196.691 E.02557
G1 X220.101 Y197.502 E.02646
G1 X220.306 Y198.329 E.02619
G1 X220.442 Y199.31 E.03042
G1 X220.471 Y200.037 E.02236
G1 X220.447 Y200.638 E.01848
G1 X220.379 Y201.248 E.01887
G1 X220.209 Y202.104 E.0268
G1 X219.995 Y202.826 E.02316
G1 X219.745 Y203.467 E.02115
G1 X219.495 Y203.992 E.01785
G1 X219.246 Y204.442 E.01579
G1 X218.582 Y205.51 E.03866
G1 X217.899 Y206.482 E.03651
G1 X217.086 Y207.51 E.04027
G1 X216.333 Y208.361 E.03492
G1 X215.417 Y209.291 E.04011
G1 X214.474 Y210.142 E.03901
G1 X213.751 Y210.733 E.02869
G1 X212.871 Y211.386 E.03369
G1 X212.087 Y211.914 E.02904
G1 X211.311 Y212.391 E.02799
G1 X210.444 Y212.874 E.03048
G1 X209.535 Y213.329 E.03123
G1 X208.672 Y213.714 E.02905
G1 X207.993 Y213.986 E.02249
G1 X206.9 Y214.371 E.03559
G1 X206.117 Y214.609 E.02515
G1 X205.182 Y214.852 E.0297
G1 X203.991 Y215.1 E.03737
G1 X203.004 Y215.255 E.03071
G1 X201.998 Y215.366 E.03109
G1 X201.043 Y215.43 E.02941
G1 X199.62 Y215.447 E.04374
G1 X198.701 Y215.41 E.02828
G1 X175.328 Y213.99 E.7195
G1 X174.552 Y213.91 E.02397
G1 X173.73 Y213.751 E.02574
G1 X173.103 Y213.578 E.01998
G1 X172.481 Y213.356 E.02028
G1 X171.959 Y213.129 E.01751
G1 X171.459 Y212.873 E.01725
G1 X171.026 Y212.617 E.01547
G1 X171.218 Y212.292 F15000
G1 F3600
G1 X171.191 Y212.276 E.00097
G1 X170.705 Y211.945 E.01805
G1 X170.127 Y211.482 E.02277
G1 X169.665 Y211.047 E.0195
G1 X169.231 Y210.573 E.01974
G1 X168.932 Y210.2 E.01471
G1 X168.533 Y209.624 E.02151
G1 X168.21 Y209.078 E.01951
G1 X167.947 Y208.547 E.01819
G1 X167.711 Y207.974 E.01905
G1 X167.53 Y207.436 E.01745
G1 X167.372 Y206.828 E.0193
G1 X167.256 Y206.216 E.01912
G1 X167.186 Y205.625 E.01831
G1 X167.152 Y204.864 E.02338
G1 X167.159 Y194.806 E.30906
G1 X167.2 Y194.231 E.01773
G1 X167.26 Y193.761 E.01456
G1 X167.373 Y193.163 E.01869
G1 X167.499 Y192.672 E.01558
G1 X167.668 Y192.144 E.01703
G1 X167.951 Y191.445 E.0232
G1 X168.237 Y190.874 E.01962
G1 X168.494 Y190.434 E.01566
G1 X168.895 Y189.85 E.02177
G1 X169.258 Y189.395 E.01788
G1 X169.626 Y188.993 E.01675
G1 X170.138 Y188.508 E.02167
G1 X170.682 Y188.072 E.02141
G1 X171.168 Y187.738 E.01814
G1 X171.687 Y187.432 E.01851
G1 X172.242 Y187.156 E.01905
G1 X172.68 Y186.971 E.01459
G1 X173.106 Y186.819 E.0139
G1 X173.887 Y186.6 E.02494
G1 X174.521 Y186.476 E.01984
G1 X174.985 Y186.417 E.01436
G1 X198.734 Y184.965 E.73112
G1 X199.661 Y184.929 E.02851
G1 X200.317 Y184.927 E.02015
G1 X201.766 Y184.993 E.04457
G1 X202.987 Y185.123 E.03773
G1 X204.427 Y185.368 E.04488
G1 X205.803 Y185.696 E.04346
G1 X207.227 Y186.136 E.04578
G1 X208.525 Y186.633 E.04273
G1 X209.821 Y187.23 E.04384
G1 X210.635 Y187.657 E.02824
G1 X211.167 Y187.962 E.01886
G1 X212.427 Y188.765 E.0459
G1 X213.545 Y189.585 E.04261
G1 X214.599 Y190.468 E.04223
G1 X215.636 Y191.454 E.04396
G1 X216.154 Y192.001 E.02317
G1 X216.663 Y192.575 E.02355
G1 X217.561 Y193.697 E.04416
G1 X218.355 Y194.831 E.04255
G1 X218.807 Y195.555 E.02622
G1 X219.121 Y196.107 E.01953
G1 X219.464 Y196.84 E.02486
G1 X219.741 Y197.617 E.02533
G1 X219.936 Y198.407 E.02501
G1 X220.066 Y199.349 E.02923
G1 X220.093 Y200.042 E.0213
G1 X220.07 Y200.613 E.01759
G1 X220.006 Y201.186 E.01769
G1 X219.844 Y202.008 E.02576
G1 X219.636 Y202.708 E.02244
G1 X219.397 Y203.321 E.02022
G1 X219.161 Y203.816 E.01685
G1 X218.923 Y204.248 E.01515
G1 X218.269 Y205.299 E.03803
G1 X217.594 Y206.259 E.03605
G1 X216.799 Y207.266 E.03943
G1 X216.055 Y208.106 E.03447
G1 X215.158 Y209.016 E.03927
G1 X214.226 Y209.857 E.03858
G1 X213.517 Y210.437 E.02813
G1 X212.655 Y211.077 E.033
G1 X211.885 Y211.596 E.02854
G1 X211.122 Y212.064 E.0275
G1 X210.266 Y212.542 E.03013
G1 X209.377 Y212.987 E.03056
G1 X208.527 Y213.366 E.02859
G1 X207.862 Y213.633 E.02202
G1 X206.785 Y214.012 E.03508
G1 X206.013 Y214.246 E.0248
G1 X205.093 Y214.485 E.0292
G1 X203.926 Y214.728 E.03663
G1 X202.951 Y214.882 E.03032
G1 X201.967 Y214.99 E.03041
G1 X201.025 Y215.053 E.02901
G1 X199.628 Y215.07 E.04294
G1 X198.718 Y215.034 E.02798
G1 X175.361 Y213.615 E.71901
G1 X174.612 Y213.537 E.02314
G1 X173.82 Y213.384 E.02479
G1 X173.213 Y213.217 E.01936
G1 X172.617 Y213.003 E.01946
