; HEADER_BLOCK_START
; generated by OrcaSlicer 2.3.2 on 2026-04-29 at 13:23:22
; total layer number: 70
; filament_density: 1.24
; filament_diameter: 1.75
; max_z_height: 7.00
; filament: 1
; HEADER_BLOCK_END

; THUMBNAIL_BLOCK_START

;
; THUMBNAIL_BLOCK_END

; THUMBNAIL_BLOCK_START

;
; THUMBNAIL_BLOCK_END

; external perimeters extrusion width = 0.30mm
; perimeters extrusion width = 0.45mm
; infill extrusion width = 0.40mm
; solid infill extrusion width = 0.45mm
; top infill extrusion width = 0.35mm
; first layer extrusion width = 0.42mm

; EXECUTABLE_BLOCK_START
EXCLUDE_OBJECT_DEFINE NAME=608_PLA.stl_id_0_copy_0 CENTER=200,156.404 POLYGON=[[188.904,156.715],[188.904,156.093],[188.939,155.471],[189.009,154.852],[189.113,154.238],[189.252,153.631],[189.424,153.033],[189.63,152.445],[189.868,151.87],[190.138,151.309],[190.439,150.764],[190.771,150.237],[191.131,149.729],[191.519,149.243],[191.934,148.778],[192.374,148.338],[192.839,147.923],[193.325,147.535],[193.833,147.175],[194.36,146.843],[194.905,146.542],[195.466,146.272],[196.041,146.034],[196.629,145.828],[197.227,145.656],[197.834,145.517],[198.448,145.413],[199.067,145.343],[199.689,145.308],[200.311,145.308],[200.933,145.343],[201.552,145.413],[202.165,145.517],[202.772,145.656],[203.371,145.828],[203.958,146.034],[204.534,146.272],[205.095,146.542],[205.64,146.843],[206.167,147.175],[206.675,147.535],[207.161,147.923],[207.626,148.338],[208.066,148.778],[208.481,149.242],[208.869,149.729],[209.229,150.237],[209.561,150.764],[209.862,151.309],[210.132,151.87],[210.37,152.445],[210.576,153.033],[210.748,153.631],[210.887,154.238],[210.991,154.852],[211.061,155.471],[211.096,156.093],[211.096,156.715],[211.061,157.337],[210.991,157.955],[210.887,158.569],[210.748,159.176],[210.576,159.775],[210.37,160.362],[210.132,160.938],[209.862,161.499],[209.561,162.043],[209.229,162.571],[208.869,163.078],[208.481,163.565],[208.066,164.029],[207.626,164.47],[207.161,164.885],[206.675,165.273],[206.167,165.633],[205.64,165.964],[205.095,166.266],[204.534,166.536],[203.959,166.774],[203.371,166.98],[202.773,167.152],[202.166,167.291],[201.552,167.395],[200.933,167.465],[200.311,167.499],[199.689,167.5],[199.067,167.465],[198.448,167.395],[197.835,167.291],[197.228,167.152],[196.629,166.98],[196.042,166.774],[195.466,166.536],[194.905,166.266],[194.36,165.964],[193.833,165.633],[193.325,165.273],[192.839,164.885],[192.374,164.47],[191.934,164.03],[191.519,163.565],[191.131,163.079],[190.771,162.571],[190.439,162.044],[190.138,161.499],[189.868,160.938],[189.63,160.362],[189.424,159.775],[189.252,159.176],[189.113,158.569],[189.009,157.956],[188.939,157.337],[188.904,156.715]]
EXCLUDE_OBJECT_DEFINE NAME=608_PLA.stl_id_0_copy_1 CENTER=200,243.596 POLYGON=[[188.904,243.907],[188.904,243.285],[188.939,242.663],[189.009,242.045],[189.113,241.431],[189.252,240.824],[189.424,240.225],[189.63,239.638],[189.868,239.062],[190.138,238.501],[190.439,237.957],[190.771,237.429],[191.131,236.922],[191.519,236.435],[191.934,235.971],[192.374,235.53],[192.839,235.115],[193.325,234.727],[193.833,234.367],[194.36,234.036],[194.905,233.734],[195.466,233.464],[196.041,233.226],[196.629,233.02],[197.227,232.848],[197.834,232.709],[198.448,232.605],[199.067,232.535],[199.689,232.5],[200.311,232.501],[200.933,232.535],[201.552,232.605],[202.165,232.709],[202.772,232.848],[203.371,233.02],[203.958,233.226],[204.534,233.464],[205.095,233.734],[205.64,234.036],[206.167,234.367],[206.675,234.727],[207.161,235.115],[207.626,235.53],[208.066,235.97],[208.481,236.435],[208.869,236.921],[209.229,237.429],[209.561,237.956],[209.862,238.501],[210.132,239.062],[210.37,239.638],[210.576,240.225],[210.748,240.824],[210.887,241.431],[210.991,242.044],[211.061,242.663],[211.096,243.285],[211.096,243.907],[211.061,244.529],[210.991,245.148],[210.887,245.762],[210.748,246.369],[210.576,246.967],[210.37,247.555],[210.132,248.13],[209.862,248.691],[209.561,249.236],[209.229,249.763],[208.869,250.271],[208.481,250.757],[208.066,251.222],[207.626,251.662],[207.161,252.077],[206.675,252.465],[206.167,252.825],[205.64,253.157],[205.095,253.458],[204.534,253.728],[203.959,253.966],[203.371,254.172],[202.773,254.344],[202.166,254.483],[201.552,254.587],[200.933,254.657],[200.311,254.692],[199.689,254.692],[199.067,254.657],[198.448,254.587],[197.835,254.483],[197.228,254.344],[196.629,254.172],[196.042,253.966],[195.466,253.728],[194.905,253.458],[194.36,253.157],[193.833,252.825],[193.325,252.465],[192.839,252.077],[192.374,251.662],[191.934,251.222],[191.519,250.758],[191.131,250.271],[190.771,249.763],[190.439,249.236],[190.138,248.691],[189.868,248.13],[189.63,247.555],[189.424,246.967],[189.252,246.369],[189.113,245.762],[189.009,245.148],[188.939,244.529],[188.904,243.907]]
M73 P0 R19
M106 S0
M106 P2 S0
;TYPE:Custom
SET_PRINT_STATS_INFO TOTAL_LAYER=70
START_PRINT BED_TEMP=55 EXTRUDER_TEMP=220 HOUR=13
G90
G21
M83 ; use relative distances for extrusion
; Filament gcode
M106 S0
M106 P2 S0
;LAYER_CHANGE
;Z:0.2
;HEIGHT:0.2
;BEFORE_LAYER_CHANGE
G92 E0.0
;0.2


G10 ; retract
SET_PRINT_STATS_INFO CURRENT_LAYER=1
;_SET_FAN_SPEED_CHANGING_LAYER
SET_VELOCITY_LIMIT ACCEL=800 ACCEL_TO_DECEL=400
; printing object 608+PLA.stl id:0 copy 0
EXCLUDE_OBJECT_START NAME=608_PLA.stl_id_0_copy_0
G1 Z.6 F15000
G1 X182.959 Y237.645
G1 Z.2
G11 ; unretract
;TYPE:Brim
;WIDTH:0.42
G1 F3600
G1 X183.327 Y236.679 E.03178
G1 X183.689 Y235.86 E.0275
G1 X184.04 Y235.162 E.02399
G1 X184.533 Y234.291 E.03076
G1 X184.844 Y233.791 E.01809
G1 X185.433 Y232.935 E.03192
G1 X185.929 Y232.288 E.02505
G1 X186.594 Y231.507 E.03152
G1 X187.197 Y230.872 E.02692
G1 X187.947 Y230.159 E.03178
G1 X189.076 Y229.226 E.045
G1 X189.916 Y228.624 E.03176
G1 X190.769 Y228.084 E.03101
G1 X191.407 Y227.72 E.02256
G1 X192.237 Y227.3 E.02861
G1 X193.584 Y226.724 E.04501
G1 X194.56 Y226.384 E.03176
G1 X195.542 Y226.104 E.03138
G1 X196.2 Y225.949 E.02077
G1 X197.161 Y225.77 E.03004
G1 X198.616 Y225.598 E.04501
G1 X199.648 Y225.548 E.03176
G1 X200.682 Y225.558 E.03174
G1 X201.299 Y225.592 E.01899
G1 X202.319 Y225.695 E.0315
G1 X203.34 Y225.857 E.03179
G1 X204.35 Y226.077 E.03176
G1 X205.756 Y226.487 E.045
G1 X206.726 Y226.845 E.03176
G1 X207.627 Y227.235 E.03017
G1 X208.231 Y227.53 E.02065
G1 X209.127 Y228.022 E.03141
G1 X210.004 Y228.571 E.03179
G1 X210.848 Y229.168 E.03176
G1 X211.981 Y230.095 E.04499
G1 X212.735 Y230.803 E.03178
G1 X213.369 Y231.465 E.02817
G1 X213.863 Y232.034 E.02315
G1 X214.485 Y232.825 E.0309
G1 X215.078 Y233.672 E.03179
G1 X215.622 Y234.554 E.03183
G1 X215.909 Y235.067 E.01807
G1 X216.373 Y235.996 E.03193
G1 X216.702 Y236.747 E.02517
G1 X217.024 Y237.59 E.02772
G1 X217.337 Y238.566 E.03151
G1 X217.589 Y239.539 E.03089
G1 X217.856 Y240.948 E.04406
G1 X217.953 Y241.702 E.02336
G1 X218.024 Y242.61 E.02798
G1 X218.051 Y243.645 E.03181
G1 X218.018 Y244.678 E.03176
G1 X217.872 Y246.135 E.045
G1 X217.697 Y247.154 E.03176
G1 X217.468 Y248.148 E.03135
G1 X217.285 Y248.803 E.0209
G1 X216.978 Y249.728 E.02994
G1 X216.425 Y251.084 E.04501
G1 X215.969 Y252.012 E.03176
G1 X215.46 Y252.914 E.03182
G1 X215.14 Y253.427 E.01858
G1 X214.551 Y254.278 E.03179
G1 X213.638 Y255.422 E.045
G1 X212.938 Y256.183 E.03176
G1 X212.196 Y256.904 E.03179
G1 X211.413 Y257.582 E.03183
G1 X210.938 Y257.956 E.01858
G1 X210.096 Y258.56 E.03183
G1 X209.221 Y259.114 E.03182
G1 X208.729 Y259.395 E.01741
G1 X207.936 Y259.809 E.02749
G1 X206.994 Y260.237 E.0318
G1 X206.029 Y260.61 E.03179
G1 X205.044 Y260.928 E.03181
G1 X204.155 Y261.164 E.02827
G1 X203.421 Y261.32 E.02304
G1 X202.43 Y261.483 E.03088
G1 X200.971 Y261.621 E.04502
G1 X200.09 Y261.648 E.02708
G1 X199.064 Y261.624 E.03152
G1 X198.042 Y261.542 E.03152
G1 X197.229 Y261.433 E.0252
G1 X196.685 Y261.34 E.01695
G1 X195.67 Y261.12 E.03193
G1 X194.908 Y260.916 E.02422
G1 X194.062 Y260.642 E.02732
G1 X193.095 Y260.274 E.03181
G1 X192.151 Y259.851 E.03179
G1 X191.232 Y259.374 E.0318
G1 X190.468 Y258.925 E.02724
G1 X189.985 Y258.614 E.01765
G1 X189.14 Y258.015 E.03183
G1 X188.331 Y257.368 E.03183
G1 X187.876 Y256.97 E.01858
G1 X187.129 Y256.252 E.03183
G1 X186.515 Y255.595 E.02761
G1 X186.147 Y255.17 E.01729
G1 X185.506 Y254.356 E.03183
G1 X184.913 Y253.507 E.03183
G1 X184.59 Y252.997 E.01855
G1 X183.878 Y251.716 E.04503
G1 X183.44 Y250.78 E.03176
G1 X183.059 Y249.829 E.0315
G1 X182.855 Y249.245 E.01899
G1 X182.56 Y248.255 E.03174
G1 X182.322 Y247.248 E.03179
G1 X182.142 Y246.23 E.03176
G1 X181.987 Y244.774 E.045
G1 X181.95 Y243.741 E.03177
G1 X181.966 Y242.781 E.0295
G1 X182.012 Y242.083 E.02149
G1 X182.126 Y241.073 E.03124
G1 X182.3 Y240.053 E.03179
G1 X182.532 Y239.046 E.03176
G1 X182.947 Y237.683 E.04377
G1 X183.308 Y237.793 F15000
G1 F3600
G1 X183.317 Y237.763 E.00095
G1 X183.675 Y236.825 E.03087
G1 X184.032 Y236.019 E.02709
G1 X184.374 Y235.338 E.02342
G1 X184.858 Y234.481 E.03023
G1 X185.161 Y233.996 E.01759
G1 X185.74 Y233.155 E.03137
G1 X186.224 Y232.523 E.02446
G1 X186.876 Y231.757 E.03091
G1 X187.466 Y231.136 E.02631
G1 X188.195 Y230.444 E.03088
G1 X189.309 Y229.523 E.04443
G1 X190.125 Y228.939 E.03081
G1 X190.961 Y228.409 E.03043
G1 X191.588 Y228.051 E.02217
G1 X192.393 Y227.643 E.02775
G1 X193.724 Y227.074 E.04447
G1 X194.671 Y226.745 E.03081
G1 X195.635 Y226.47 E.0308
G1 X196.281 Y226.317 E.02039
G1 X197.214 Y226.143 E.02918
G1 X198.651 Y225.974 E.04445
G1 X199.659 Y225.926 E.03101
G1 X200.667 Y225.935 E.03097
G1 X201.272 Y225.968 E.01862
G1 X202.273 Y226.069 E.03092
G1 X203.267 Y226.227 E.03093
G1 X204.253 Y226.442 E.03101
G1 X205.642 Y226.847 E.04444
G1 X206.583 Y227.194 E.03083
G1 X207.472 Y227.578 E.02975
G1 X208.059 Y227.866 E.02011
G1 X208.939 Y228.349 E.03083
G1 X209.792 Y228.883 E.03093
G1 X210.616 Y229.466 E.03101
G1 X211.735 Y230.381 E.04443
G1 X212.467 Y231.069 E.03086
G1 X213.092 Y231.722 E.02776
G1 X213.574 Y232.277 E.02258
G1 X214.184 Y233.052 E.03031
G1 X214.764 Y233.882 E.03114
G1 X215.296 Y234.743 E.03107
G1 X215.577 Y235.245 E.0177
G1 X216.033 Y236.159 E.03138
G1 X216.354 Y236.892 E.02459
G1 X216.667 Y237.712 E.02695
G1 X216.974 Y238.668 E.03086
G1 X217.22 Y239.618 E.03016
G1 X217.484 Y241.011 E.04355
G1 X217.578 Y241.744 E.0227
G1 X217.647 Y242.633 E.0274
G1 X217.673 Y243.641 E.03098
G1 X217.642 Y244.649 E.031
G1 X217.497 Y246.088 E.04444
G1 X217.328 Y247.076 E.03081
G1 X217.103 Y248.052 E.03077
G1 X216.923 Y248.695 E.02051
G1 X216.625 Y249.594 E.02908
G1 X216.079 Y250.933 E.04446
G1 X215.634 Y251.839 E.031
G1 X215.137 Y252.719 E.03105
G1 X214.823 Y253.221 E.01821
G1 X214.251 Y254.05 E.03093
G1 X213.348 Y255.18 E.04444
G1 X212.666 Y255.923 E.031
G1 X211.939 Y256.628 E.03113
G1 X211.174 Y257.289 E.03105
G1 X210.709 Y257.656 E.01821
G1 X209.882 Y258.249 E.03125
G1 X209.024 Y258.792 E.03121
G1 X208.546 Y259.065 E.01691
G1 X207.768 Y259.471 E.02698
G1 X206.851 Y259.888 E.03096
G1 X205.906 Y260.254 E.03113
G1 X204.94 Y260.565 E.03118
G1 X204.07 Y260.796 E.02768
G1 X203.349 Y260.95 E.02264
G1 X202.385 Y261.108 E.03001
G1 X200.944 Y261.244 E.04449
G1 X200.085 Y261.271 E.02638
G1 X199.087 Y261.247 E.03068
G1 X198.085 Y261.167 E.0309
G1 X197.288 Y261.061 E.02472
G1 X196.754 Y260.97 E.01662
G1 X195.756 Y260.753 E.0314
G1 X195.013 Y260.553 E.02365
G1 X194.185 Y260.285 E.02673
G1 X193.236 Y259.924 E.03119
G1 X192.318 Y259.513 E.03093
G1 X191.417 Y259.046 E.03117
G1 X190.668 Y258.605 E.02673
G1 X190.194 Y258.3 E.01731
G1 X189.364 Y257.711 E.03126
G1 X188.575 Y257.081 E.03105
G1 X188.129 Y256.69 E.01821
G1 X187.4 Y255.989 E.03108
G1 X186.797 Y255.345 E.0271
G1 X186.437 Y254.927 E.01695
G1 X185.807 Y254.129 E.03125
G1 X185.229 Y253.3 E.03105
G1 X184.916 Y252.807 E.01793
G1 X184.213 Y251.541 E.04452
G1 X183.785 Y250.627 E.03101
G1 X183.411 Y249.694 E.03088
G1 X183.214 Y249.126 E.01846
G1 X182.924 Y248.154 E.03117
G1 X182.692 Y247.175 E.03093
G1 X182.516 Y246.181 E.031
G1 X182.364 Y244.743 E.04444
G1 X182.327 Y243.74 E.03084
G1 X182.343 Y242.794 E.02908
G1 X182.388 Y242.114 E.02094
G1 X182.5 Y241.123 E.03065
G1 X182.67 Y240.13 E.03093
G1 X182.896 Y239.147 E.03101
G1 X183.296 Y237.831 E.04226
G1 X183.657 Y237.941 F15000
G1 F3600
G1 X183.675 Y237.882 E.0019
G1 X184.023 Y236.971 E.02996
G1 X184.374 Y236.177 E.02668
G1 X184.708 Y235.513 E.02285
G1 X185.184 Y234.672 E.02969
G1 X185.478 Y234.2 E.01708
G1 X186.047 Y233.374 E.03082
G1 X186.519 Y232.757 E.02387
G1 X187.159 Y232.007 E.03029
G1 X187.735 Y231.401 E.02569
G1 X188.442 Y230.729 E.02997
G1 X189.543 Y229.82 E.04387
G1 X190.333 Y229.254 E.02987
G1 X191.153 Y228.733 E.02984
G1 X191.769 Y228.382 E.02178
G1 X192.55 Y227.987 E.0269
G1 X193.864 Y227.425 E.04392
G1 X194.788 Y227.104 E.03006
G1 X195.728 Y226.835 E.03002
G1 X196.361 Y226.686 E.02001
G1 X197.267 Y226.517 E.02832
G1 X198.686 Y226.35 E.0439
G1 X199.663 Y226.303 E.03005
G1 X200.652 Y226.312 E.0304
G1 X201.245 Y226.344 E.01825
G1 X202.228 Y226.444 E.03035
G1 X203.201 Y226.598 E.03027
G1 X204.156 Y226.807 E.03005
G1 X205.527 Y227.207 E.04388
G1 X206.44 Y227.543 E.02989
G1 X207.316 Y227.922 E.02933
G1 X207.888 Y228.202 E.01956
G1 X208.751 Y228.677 E.03025
G1 X209.58 Y229.195 E.03007
G1 X210.384 Y229.764 E.03025
G1 X211.49 Y230.668 E.04387
G1 X212.2 Y231.335 E.02994
G1 X212.815 Y231.978 E.02735
G1 X213.285 Y232.519 E.02202
G1 X213.882 Y233.28 E.02972
G1 X214.451 Y234.092 E.03048
G1 X214.969 Y234.931 E.0303
G1 X215.244 Y235.424 E.01733
G1 X215.693 Y236.322 E.03083
G1 X216.006 Y237.038 E.02402
G1 X216.31 Y237.834 E.02618
G1 X216.61 Y238.77 E.03021
G1 X216.851 Y239.697 E.02943
G1 X217.112 Y241.073 E.04304
G1 X217.203 Y241.785 E.02205
G1 X217.271 Y242.655 E.02682
G1 X217.296 Y243.643 E.03036
G1 X217.266 Y244.62 E.03005
G1 X217.122 Y246.041 E.04387
G1 X216.957 Y247.005 E.03006
G1 X216.738 Y247.957 E.03
G1 X216.562 Y248.588 E.02013
G1 X216.272 Y249.459 E.02822
G1 X215.733 Y250.782 E.0439
G1 X215.299 Y251.666 E.03025
G1 X214.814 Y252.524 E.03028
G1 X214.506 Y253.016 E.01784
G1 X213.95 Y253.821 E.03007
G1 X213.059 Y254.937 E.04388
G1 X212.393 Y255.662 E.03025
G1 X211.681 Y256.352 E.03046
G1 X210.936 Y256.997 E.03028
G1 X210.48 Y257.356 E.01784
G1 X209.669 Y257.938 E.03068
G1 X208.828 Y258.471 E.03059
G1 X208.364 Y258.735 E.01641
G1 X207.6 Y259.133 E.02647
G1 X206.701 Y259.541 E.03032
G1 X205.783 Y259.897 E.03026
G1 X204.837 Y260.202 E.03055
G1 X203.985 Y260.429 E.0271
G1 X203.276 Y260.58 E.02225
G1 X202.341 Y260.733 E.02913
G1 X200.916 Y260.868 E.04396
G1 X200.081 Y260.894 E.02569
G1 X199.11 Y260.871 E.02984
G1 X198.128 Y260.792 E.03027
G1 X197.346 Y260.688 E.02422
G1 X196.824 Y260.599 E.0163
G1 X195.842 Y260.386 E.03086
G1 X195.117 Y260.19 E.02308
G1 X194.307 Y259.929 E.02615
G1 X193.384 Y259.577 E.03037
G1 X192.485 Y259.174 E.03027
G1 X191.602 Y258.717 E.03053
G1 X190.867 Y258.285 E.02621
G1 X190.403 Y257.986 E.01696
G1 X189.589 Y257.408 E.03068
G1 X188.819 Y256.793 E.03028
G1 X188.382 Y256.41 E.01784
G1 X187.67 Y255.726 E.03033
G1 X187.079 Y255.094 E.02659
G1 X186.726 Y254.685 E.01661
G1 X186.108 Y253.901 E.03067
G1 X185.544 Y253.093 E.03028
G1 X185.242 Y252.617 E.01731
G1 X184.547 Y251.366 E.044
G1 X184.13 Y250.474 E.03026
G1 X183.763 Y249.559 E.03027
G1 X183.572 Y249.008 E.01793
G1 X183.288 Y248.054 E.03059
G1 X183.061 Y247.095 E.03027
G1 X182.891 Y246.132 E.03005
G1 X182.74 Y244.712 E.04387
G1 X182.704 Y243.74 E.02991
G1 X182.72 Y242.807 E.02867
G1 X182.764 Y242.145 E.02038
G1 X182.874 Y241.172 E.03007
G1 X183.04 Y240.201 E.03028
G1 X183.259 Y239.248 E.03005
G1 X183.646 Y237.979 E.04075
G1 X184.007 Y238.089 F15000
G1 F3600
G1 X184.034 Y238.001 E.00284
G1 X184.371 Y237.117 E.02904
G1 X184.716 Y236.336 E.02627
G1 X185.042 Y235.688 E.02227
G1 X185.509 Y234.863 E.02915
G1 X185.795 Y234.405 E.01657
G1 X186.354 Y233.594 E.03028
G1 X186.815 Y232.992 E.02328
G1 X187.441 Y232.257 E.02968
G1 X188.004 Y231.666 E.02507
G1 X188.689 Y231.014 E.02907
G1 X189.776 Y230.116 E.04331
G1 X190.541 Y229.568 E.02893
G1 X191.345 Y229.058 E.02925
G1 X191.95 Y228.713 E.02139
G1 X192.706 Y228.33 E.02604
G1 X194.004 Y227.776 E.04338
G1 X194.905 Y227.462 E.02931
G1 X195.82 Y227.201 E.02925
G1 X196.442 Y227.054 E.01963
